!!!!SEGMENT: Snf0314-Ne_reminiscaris_Domine.krn
!!!id: Snf0314
!!!AGN: Motet
!!!voices: 5
!!!COM: Ludwig Senfl
!!!OTL: Ne reminiscaris, Domine
**kern	**text	**kern	**text	**kern	**text	**kern	**text	**kern	**text
*part5	*part5	*part4	*part4	*part3	*part3	*part2	*part2	*part1	*part1
*staff5	*staff5	*staff4	*staff4	*staff3	*staff3	*staff2	*staff2	*staff1	*staff1
*I"Bassus	*	*I"Tenor II	*	*I"Tenor I	*	*I"Altus	*	*I"Superius	*
*I'B	*	*I'T. II	*	*I'T. I	*	*I'A	*	*I'S	*
*clefF4	*	*clefGv2	*	*clefGv2	*	*clefG2	*	*clefG2	*
*k[]	*	*k[]	*	*k[]	*	*k[]	*	*k[]	*
*C:	*	*C:	*	*C:	*	*C:	*	*C:	*
*M2/1	*	*M2/1	*	*M2/1	*	*M2/1	*	*M2/1	*
*met(C|)	*	*met(C|)	*	*met(C|)	*	*met(C|)	*	*met(C|)	*
!!section: Prima pars: Ne reminiscaris, Domine
!!!OMD: Prima pars: Ne reminiscaris, Domine
=1	=1	=1	=1	=1	=1	=1	=1	=1	=1
!	!	!	!	!LO:TX:a:t=Canon&colon; tenor I/tenor II at the fourth	!	!	!	!	!
0r	.	0r	.	0r	.	0g	Ne	0r	.
=2	=2	=2	=2	=2	=2	=2	=2	=2	=2
0r	.	0r	.	0r	.	0a	re-	0cc	Ne
=3	=3	=3	=3	=3	=3	=3	=3	=3	=3
0r	.	0r	.	0r	.	0g	-mi-	0dd	re-
=4	=4	=4	=4	=4	=4	=4	=4	=4	=4
0r	.	0r	.	0r	.	1a	-ni-	1cc	-mi-
.	.	.	.	.	.	1b	.	1dd	-ni-
=5	=5	=5	=5	=5	=5	=5	=5	=5	=5
0r	.	0r	.	0c	Ne	2.cc	-sca-	1ee	.
.	.	.	.	.	.	4b	.	.	.
.	.	.	.	.	.	4a	.	[1ee	-sca-
.	.	.	.	.	.	4g	.	.	.
.	.	.	.	.	.	[2a	.	.	.
=6	=6	=6	=6	=6	=6	=6	=6	=6	=6
0r	.	0r	.	0d	re-	4a]	.	2ee]	.
.	.	.	.	.	.	4g	.	.	.
.	.	.	.	.	.	4f	.	4dd	.
.	.	.	.	.	.	4e	.	4cc	.
.	.	.	.	.	.	1f	.	1dd	.
=7	=7	=7	=7	=7	=7	=7	=7	=7	=7
0r	.	0r	.	1c	-mi-	2e	.	1ee	-ris,
.	.	.	.	.	.	2g	.	.	.
.	.	.	.	1d	-ni-	2.f	.	2r	.
.	.	.	.	.	.	.	.	2a	ne
.	.	.	.	.	.	4e	.	.	.
=8	=8	=8	=8	=8	=8	=8	=8	=8	=8
0C	Ne	0r	.	1e	.	1c	-ris,	2.cc	re-
.	.	.	.	.	.	.	.	4b	.
.	.	.	.	[1e	-sca-	2r	.	4a	-mi-
.	.	.	.	.	.	.	.	4g	.
.	.	.	.	.	.	2c	ne	[2a	-ni-
=9	=9	=9	=9	=9	=9	=9	=9	=9	=9
0D	re-	0r	.	2e]	.	1A	re-	4a]	.
.	.	.	.	.	.	.	.	4g	.
.	.	.	.	4d	.	.	.	4f	.
.	.	.	.	4c	.	.	.	4e	.
.	.	.	.	1d	.	2A	-mi-	1f	-sca-
.	.	.	.	.	.	2A	-ni-	.	.
=10	=10	=10	=10	=10	=10	=10	=10	=10	=10
2.C	-mi-	0g	Ne	[0e	-ris,	1c	-sca-	1g	-ris,
4D	.	.	.	.	.	.	.	.	.
1E	.	.	.	.	.	1B	.	2r	.
.	.	.	.	.	.	.	.	2g	ne
=11	=11	=11	=11	=11	=11	=11	=11	=11	=11
0AA	-ni-	0a	re-	0e]	.	2A	.	1cc	re-
.	.	.	.	.	.	2.c	.	.	.
.	.	.	.	.	.	.	.	2cc	-mi-
.	.	.	.	.	.	4d	.	.	.
.	.	.	.	.	.	4e	.	2cc	-ni-
.	.	.	.	.	.	4f	.	.	.
=12	=12	=12	=12	=12	=12	=12	=12	=12	=12
1E	-sca-	1g	-mi-	0r	.	2g	.	2b	-sca-
.	.	.	.	.	.	2c	.	1g	.
1D	.	1a	-ni-	.	.	[1d	-ris,	.	.
.	.	.	.	.	.	.	.	2f#i	.
=13	=13	=13	=13	=13	=13	=13	=13	=13	=13
1G	.	1b	.	1r	.	1d]	.	0g	-ris,
2E	.	[1b	-sca-	1e	Do-	1r	.	.	.
[2G	.	.	.	.	.	.	.	.	.
=14	=14	=14	=14	=14	=14	=14	=14	=14	=14
2G]	.	2b]	.	1d	-mi-	0r	.	1r	.
4F	.	4a	.	.	.	.	.	.	.
4E	.	4g	.	.	.	.	.	.	.
1F	.	1a	.	1d	-ne,	.	.	1a	Do-
=15	=15	=15	=15	=15	=15	=15	=15	=15	=15
0E	-ris,	[0b	-ris,	1e	.	2r	.	2g	-mi-
.	.	.	.	.	.	1e	Do-	2.g	-ne,
.	.	.	.	1r	.	.	.	.	.
.	.	.	.	.	.	.	.	4a	.
.	.	.	.	.	.	4d	.	4b	.
.	.	.	.	.	.	4c	.	4cc	.
=16	=16	=16	=16	=16	=16	=16	=16	=16	=16
1r	.	0b]	.	0d	de-	2B	.	1dd	.
.	.	.	.	.	.	2G	.	.	.
1G	Do-	.	.	.	.	1g	.	1b	de-
=17	=17	=17	=17	=17	=17	=17	=17	=17	=17
2.A	.	0r	.	0c	.	1e	-mi-	2.cc	-li-
4G	.	.	.	.	.	.	.	4b	.
2.F	-mi-	.	.	.	.	1f	-ne,	2.a	.
4E	.	.	.	.	.	.	.	4g	.
=18	=18	=18	=18	=18	=18	=18	=18	=18	=18
1D	-ne,	1r	.	1d	-li-	2r	.	2f	.
.	.	.	.	.	.	2f	Do-	1a	.
1G	.	1b	Do-	1d	-cta	2d	.	.	.
.	.	.	.	.	.	2B	-mi-	2g	.
=19	=19	=19	=19	=19	=19	=19	=19	=19	=19
0r	.	1a	-mi-	1e	.	2.c	-ne,	2a	-cta
.	.	.	.	.	.	.	.	2.cc	me-
.	.	.	.	.	.	4d	.	.	.
.	.	1a	-ne,	1c	me-	1e	.	.	.
.	.	.	.	.	.	.	.	4b	.
.	.	.	.	.	.	.	.	[2a	.
=20	=20	=20	=20	=20	=20	=20	=20	=20	=20
1G	de-	1b	.	0d	.	2r	.	2a]	.
.	.	.	.	.	.	2d	de-	2g	.
1D	.	1r	.	.	.	1f	-li-	1a	-a,
=21	=21	=21	=21	=21	=21	=21	=21	=21	=21
0F	-li-	0a	de-	0c	.	1f	-cta	2r	.
.	.	.	.	.	.	.	.	1a	de-
.	.	.	.	.	.	2r	.	.	.
.	.	.	.	.	.	2f	me-	4g	.
.	.	.	.	.	.	.	.	4f	.
=22	=22	=22	=22	=22	=22	=22	=22	=22	=22
1C	-cta	0g	.	1c	-a	2.g	.	2.e	-li-
.	.	.	.	.	.	4f	.	4f	-cta
1E	.	.	.	1r	.	2e	.	1g	me-
.	.	.	.	.	.	2c	.	.	.
=23	=23	=23	=23	=23	=23	=23	=23	=23	=23
2.D	me-	1a	-li-	1r	.	2.d	.	1f	-a
4C	.	.	.	.	.	4e	.	.	.
2AA	.	1a	-cta	1c	vel	2f	.	2r	.
2A	.	.	.	.	.	2e	.	[2cc	vel
=24	=24	=24	=24	=24	=24	=24	=24	=24	=24
1G	-a	1b	.	1d	pa-	0g	.	2cc]	.
.	.	.	.	.	.	.	.	2b	pa-
[1C	vel	1g	me-	[1e	-ren-	.	.	1cc	-ren-
=25	=25	=25	=25	=25	=25	=25	=25	=25	=25
1C]	.	0a	.	1e]	.	1c	-a	2.cc	-tum,
.	.	.	.	.	.	.	.	4b	.
1D	pa-	.	.	1f	.	1r	.	2.a	.
.	.	.	.	.	.	.	.	8gL	.
.	.	.	.	.	.	.	.	8fJ	.
=26	=26	=26	=26	=26	=26	=26	=26	=26	=26
2.E	-ren-	0g	.	[0g	-tum	2r	.	1e	.
.	.	.	.	.	.	2B	vel	.	.
4F	.	.	.	.	.	.	.	.	.
2G	.	.	.	.	.	2B	pa-	2d	.
[2C	.	.	.	.	.	[2e	-ren-	[2c	vel
=27	=27	=27	=27	=27	=27	=27	=27	=27	=27
4C]	.	1g	-a	1g]	.	4e]	.	2c]	.
4D	.	.	.	.	.	4d	.	.	.
2E	.	.	.	.	.	1c	.	2cc	pa-
1D	.	1r	.	1f	.	.	.	1dd	-ren-
.	.	.	.	.	.	2B	.	.	.
=28	=28	=28	=28	=28	=28	=28	=28	=28	=28
1C	-tum	1r	.	1e	.	1c	-tum	1g	-tum
2r	.	1g	vel	2.d	me-	2r	.	2r	.
2G	me-	.	.	.	.	2B	me-	2b	me-
.	.	.	.	4e	.	.	.	.	.
=29	=29	=29	=29	=29	=29	=29	=29	=29	=29
2F	-o-	1a	pa-	2f	.	1c	-o-	2a	.
2A	.	.	.	1e	-o-	.	.	2cc	-o-
2.G	.	[1b	-ren-	.	.	[1g	.	2.b	.
.	.	.	.	2d	.	.	.	.	.
4F	.	.	.	.	.	.	.	4a	.
=30	=30	=30	=30	=30	=30	=30	=30	=30	=30
2.E	.	1b]	.	0e	-rum,	2g]	.	2.g	.
.	.	.	.	.	.	2G	.	.	.
4D	.	.	.	.	.	.	.	4f	.
1C	-rum,	1cc	.	.	.	1G	-rum,	4e	.
.	.	.	.	.	.	.	.	4f	.
.	.	.	.	.	.	.	.	4g	.
.	.	.	.	.	.	.	.	4a	.
=31	=31	=31	=31	=31	=31	=31	=31	=31	=31
1G	me-	[0dd	-tum	0r	.	2r	.	1b	.
.	.	.	.	.	.	2g	me-	.	.
2.D	-o-	.	.	.	.	2.f	-o-	1a	-rum,
4E	.	.	.	.	.	4g	.	.	.
=32	=32	=32	=32	=32	=32	=32	=32	=32	=32
2F	.	1dd]	.	0r	.	2a	.	2r	.
2G	.	.	.	.	.	2g	.	2b	me-
1A	-rum,	1cc	.	.	.	2e	.	1cc	-o-
.	.	.	.	.	.	2a	.	.	.
=33	=33	=33	=33	=33	=33	=33	=33	=33	=33
2r	.	1b	.	0r	.	2.d	.	1.dd	.
2G	me-	.	.	.	.	.	.	.	.
.	.	.	.	.	.	4e	.	.	.
4D	-o-	2.a	me-	.	.	1f	-rum,	.	.
4E	.	.	.	.	.	.	.	.	.
4F	.	.	.	.	.	.	.	[2cc	.
4G	.	4b	.	.	.	.	.	.	.
=34	=34	=34	=34	=34	=34	=34	=34	=34	=34
2A	.	2cc	.	0r	.	2e	me-	4cc]	.
.	.	.	.	.	.	.	.	4b	.
2E	.	1b	-o-	.	.	1e	-o-	2g	.
1F	.	.	.	.	.	.	.	1a	.
.	.	2a	.	.	.	2d	.	.	.
=35	=35	=35	=35	=35	=35	=35	=35	=35	=35
1E	-rum,	0b	-rum,	0r	.	1e	-rum,	[0g	-rum,
1E	ne-	.	.	.	.	1r	.	.	.
=36	=36	=36	=36	=36	=36	=36	=36	=36	=36
[0G	-que,	0r	.	0r	.	1B	ne-	0g]	.
.	.	.	.	.	.	1d	-que	.	.
=37	=37	=37	=37	=37	=37	=37	=37	=37	=37
0G]	.	0r	.	0r	.	2r	.	1r	.
.	.	.	.	.	.	2d	vin-	.	.
.	.	.	.	.	.	1e	-di-	1b	ne-
=38	=38	=38	=38	=38	=38	=38	=38	=38	=38
0r	.	0r	.	0r	.	1d	-ctam	1dd	-que
.	.	.	.	.	.	1d	su-	2r	.
.	.	.	.	.	.	.	.	2dd	vin-
=39	=39	=39	=39	=39	=39	=39	=39	=39	=39
1E	ne-	0r	.	0r	.	1c	.	1ee	-di-
1G	-que	.	.	.	.	1B	-mas,	1dd	-ctam
=40	=40	=40	=40	=40	=40	=40	=40	=40	=40
2r	.	0r	.	0r	.	1r	.	1dd	su-
2G	vin-	.	.	.	.	.	.	.	.
1A	-di-	.	.	.	.	1e	ne-	1cc	.
=41	=41	=41	=41	=41	=41	=41	=41	=41	=41
1G	-ctam	0r	.	0r	.	1g	-que	1b	-mas,
1G	su-	.	.	.	.	2r	.	2r	.
.	.	.	.	.	.	2g	vin-	2b	ne-
=42	=42	=42	=42	=42	=42	=42	=42	=42	=42
1F	.	0r	.	0r	.	1a	-di-	2cc	-que
.	.	.	.	.	.	.	.	2cc	vin-
1E	-mas,	.	.	.	.	1g	-ctam	2ee	-di-
.	.	.	.	.	.	.	.	2ee	-ctam
=43	=43	=43	=43	=43	=43	=43	=43	=43	=43
0r	.	0r	.	0r	.	1g	su-	2dd	su-
.	.	.	.	.	.	.	.	4cc	.
.	.	.	.	.	.	.	.	4b	.
.	.	.	.	.	.	1f	.	1a	.
=44	=44	=44	=44	=44	=44	=44	=44	=44	=44
1E	ne-	0r	.	0r	.	1e	-mas,	0g	-mas,
1G	-que	.	.	.	.	2r	.	.	.
.	.	.	.	.	.	2B	ne-	.	.
=45	=45	=45	=45	=45	=45	=45	=45	=45	=45
2r	.	0r	.	0r	.	1d	-que,	1r	.
2G	vin-	.	.	.	.	.	.	.	.
1A	-di-	.	.	.	.	1r	.	1e	ne-
=46	=46	=46	=46	=46	=46	=46	=46	=46	=46
1G	-ctam	0r	.	0r	.	1B	ne-	1g	-que
1G	su-	.	.	.	.	1d	-que	2r	.
.	.	.	.	.	.	.	.	2g	vin-
=47	=47	=47	=47	=47	=47	=47	=47	=47	=47
1F	.	0r	.	0r	.	2r	.	1a	-di-
.	.	.	.	.	.	2d	vin-	.	.
2E	-mas,	.	.	.	.	1e	-di-	1g	-ctam
2E	ne-	.	.	.	.	.	.	.	.
=48	=48	=48	=48	=48	=48	=48	=48	=48	=48
2G	-que	0r	.	0r	.	1d	-ctam	1g	su-
2G	vin-	.	.	.	.	.	.	.	.
2D	-di-	.	.	.	.	1d	su-	1f	.
2D	-ctam	.	.	.	.	.	.	.	.
=49	=49	=49	=49	=49	=49	=49	=49	=49	=49
1A	su-	0r	.	1r	.	1c	.	2e	-mas,
.	.	.	.	.	.	.	.	2e	ne-
1E	-mas,	.	.	1e	ne-	1B	-mas,	1g	-que
=50	=50	=50	=50	=50	=50	=50	=50	=50	=50
1E	ne-	0r	.	0g	-que	1r	.	1r	.
[1G	-que	.	.	.	.	1B	ne-	1b	vin-
=51	=51	=51	=51	=51	=51	=51	=51	=51	=51
1G]	.	0r	.	1r	.	0d	-que	1b	-di-
1G	vin-	.	.	1g	vin-	.	.	1b	-ctam
=52	=52	=52	=52	=52	=52	=52	=52	=52	=52
1F	-di-	0r	.	0a	-di-	1r	.	4cc	su-
.	.	.	.	.	.	.	.	4b	.
.	.	.	.	.	.	.	.	4a	.
.	.	.	.	.	.	.	.	4g	.
1F	-ctam	.	.	.	.	1d	vin-	1f	.
=53	=53	=53	=53	=53	=53	=53	=53	=53	=53
1E	su-	0r	.	0g	-ctam	0e	-di-	2g	.
.	.	.	.	.	.	.	.	2b	.
1C	.	.	.	.	.	.	.	1cc	.
=54	=54	=54	=54	=54	=54	=54	=54	=54	=54
0G	.	1r	.	0g	su-	1d	-ctam	0b	.
.	.	1b	ne-	.	.	[1d	su-	.	.
=55	=55	=55	=55	=55	=55	=55	=55	=55	=55
0D	-mas,	0dd	-que	0f	.	2d]	.	0a	.
.	.	.	.	.	.	4c	.	.	.
.	.	.	.	.	.	4B	.	.	.
.	.	.	.	.	.	2.A	.	.	.
.	.	.	.	.	.	4B	.	.	.
=56	=56	=56	=56	=56	=56	=56	=56	=56	=56
1r	.	1r	.	1e	-mas	1c	.	1g	-mas,
1D	vin-	1dd	vin-	1f	.	1A	-mas,	2r	.
.	.	.	.	.	.	.	.	2a	vin-
=57	=57	=57	=57	=57	=57	=57	=57	=57	=57
1C	-di-	0ee	-di-	[0g	de	0r	.	1cc	-di-
1C	-ctam	.	.	.	.	.	.	1cc	-ctam
=58	=58	=58	=58	=58	=58	=58	=58	=58	=58
1G	su-	0dd	-ctam	1g]	.	0r	.	1b	su-
1D	-mas,	.	.	[1f	.	.	.	1a	-mas,
=59	=59	=59	=59	=59	=59	=59	=59	=59	=59
1r	.	0dd	su-	0f]	.	1r	.	1r	.
1D	vin-	.	.	.	.	1a	vin-	1dd	vin-
=60	=60	=60	=60	=60	=60	=60	=60	=60	=60
1A	-di-	0cc	.	0e	.	2.cc	-di-	1ee	-di-
.	.	.	.	.	.	4b	.	.	.
1A	-ctam	.	.	.	.	4a	.	1cc	-ctam
.	.	.	.	.	.	4g	.	.	.
.	.	.	.	.	.	2a	.	.	.
=61	=61	=61	=61	=61	=61	=61	=61	=61	=61
2.G	su-	1b	-mas	0r	.	1d	-ctam	1dd	su-
4F	.	.	.	.	.	.	.	.	.
1E	.	1cc	.	.	.	2e	su-	2.g	.
.	.	.	.	.	.	[2g	.	.	.
.	.	.	.	.	.	.	.	4a	.
=62	=62	=62	=62	=62	=62	=62	=62	=62	=62
1D	-mas	[0dd	de	0r	.	2g]	.	2b	.
.	.	.	.	.	.	2f	.	2a	.
1G	.	.	.	.	.	1g	.	1b	.
=63	=63	=63	=63	=63	=63	=63	=63	=63	=63
1r	.	1dd]	.	0r	.	4f	.	2a	-mas
.	.	.	.	.	.	4g	.	.	.
.	.	.	.	.	.	4a	.	2dd	.
.	.	.	.	.	.	4f	.	.	.
[1C	de	[1cc	.	.	.	1g	.	2.ee	de
.	.	.	.	.	.	.	.	4dd	.
=64	=64	=64	=64	=64	=64	=64	=64	=64	=64
2C]	.	0cc]	.	0r	.	1e	-mas	2cc	.
2C	pec-	.	.	.	.	.	.	4b	.
.	.	.	.	.	.	.	.	4a	.
1C	-ca-	.	.	.	.	2r	.	2.g	.
.	.	.	.	.	.	2e	de	.	.
.	.	.	.	.	.	.	.	4a	.
=65	=65	=65	=65	=65	=65	=65	=65	=65	=65
1G	-tis	0b	.	0d	pec-	2d	pec-	1b	.
.	.	.	.	.	.	1.g	-ca-	.	.
2r	.	.	.	.	.	.	.	2r	.
2G	me-	.	.	.	.	.	.	2b	pec-
=66	=66	=66	=66	=66	=66	=66	=66	=66	=66
2A	.	0r	.	0c	-ca-	2e	.	2.cc	-ca-
2F	.	.	.	.	.	2a	.	.	.
.	.	.	.	.	.	.	.	4dd	.
1E	.	.	.	.	.	1g	.	1ee	.
=67	=67	=67	=67	=67	=67	=67	=67	=67	=67
1D	-is,	0r	.	0d	-tis	2f	.	2.ff	.
.	.	.	.	.	.	4a	.	.	.
.	.	.	.	.	.	4g	.	4ee	.
2r	.	.	.	.	.	4f	.	4dd	.
.	.	.	.	.	.	4e	.	4cc	.
[2D	de	.	.	.	.	[2f	.	[2dd	.
=68	=68	=68	=68	=68	=68	=68	=68	=68	=68
2D]	.	0r	.	0f	.	2f]	.	2dd]	.
2D	pec-	.	.	.	.	4e	.	4cc	.
.	.	.	.	.	.	4d	.	4b	.
2.F	-ca-	.	.	.	.	[1c	.	2.a	.
4G	.	.	.	.	.	.	.	4b	.
=69	=69	=69	=69	=69	=69	=69	=69	=69	=69
1A	.	0r	.	0e	me-	1c]	.	2cc	.
.	.	.	.	.	.	.	.	1a	.
1E	-tis,	.	.	.	.	1B	.	.	.
.	.	.	.	.	.	.	.	2g	.
=70	=70	=70	=70	=70	=70	=70	=70	=70	=70
2r	.	0A	pec-	[0el	-is.	1c	-tis	0a	-tis
1AA	de	.	.	.	.	.	.	.	.
.	.	.	.	.	.	2r	.	.	.
2AA	pec-	.	.	.	.	[2c	me-	.	.
=71	=71	=71	=71	=71	=71	=71	=71	=71	=71
2.C	-ca-	0G	-ca-	0e_	.	4c]	.	1r	.
.	.	.	.	.	.	4d	.	.	.
.	.	.	.	.	.	4e	.	.	.
4D	.	.	.	.	.	4f	.	.	.
1E	.	.	.	.	.	1g	.	1b	me-
=72	=72	=72	=72	=72	=72	=72	=72	=72	=72
0AA	-tis	0A	-tis	0e_	.	1c	-is,	1cc	.
.	.	.	.	.	.	2r	.	2a	.
.	.	.	.	.	.	2c	me-	[2cc	.
=73	=73	=73	=73	=73	=73	=73	=73	=73	=73
1r	.	0c	.	0e_	.	2A	.	4cc]	.
.	.	.	.	.	.	.	.	4b	.
.	.	.	.	.	.	4c	.	2g	.
.	.	.	.	.	.	4B	.	.	.
1AA	me-	.	.	.	.	4A	.	1a	.
.	.	.	.	.	.	4G	.	.	.
.	.	.	.	.	.	2A	.	.	.
=74	=74	=74	=74	=74	=74	=74	=74	=74	=74
[0El	-is.	[0Bl	me-	0e_	.	0G	.	1.b	.
.	.	.	.	.	.	.	.	2g	.
=75	=75	=75	=75	=75	=75	=75	=75	=75	=75
00E]	.	00B]	-is.	00e]	.	00Gl	-is.	00gl	-is.
==	==	==	==	==	==	==	==	==	==
*-	*-	*-	*-	*-	*-	*-	*-	*-	*-
!!!system-decoration: [*]
!!!RDF**kern: i = editorial accidental
!!!RDF**kern: l = terminal long
!!!!PTL: <i> New Senfl Edition: Motets for Five Voices</i>
!!!PPR: Hollitzer Verlag
!!!PC#: Denkmäler der Tonkunst in Österreich 163.3
!!!PDT: 2022
!!!PED: Scott Lee Edwards, Stefan Gasch, and Sonja Tröster
!!!YEC: Copyright 2022 Denkmäler der Tonkunst in Österreich
!!!YEM: CC-BY-NC 4.0 (https://creativecommons.org/licenses/by-nc/4.0/legalcode)
!!!EED: Benjamin Ory
!!!EEV: 2024/9/17
!!!verovio: header encoded
!!!header-left: @{PTL}\n@{PED}, eds.\n@{PC#} (@{PDT})&nbsp;\n
!!!header-right:
!!!header-center: